X: 1
T: Tripping On The Mountain
M: 2/4
L: 1/8
R: polka
K: Dmaj
|: dA FA | dc d/e/f/e/ | dA FA | Be ef/e/ |
dA FA |dg fe | d/B/A/F/ A/B/d/e/ |1 fd df/e/ :|2 fd df/g/ ||
|: af ge | fd df/g/ | af g/f/g/a/ | be ef/g/ |
af ge | fd fe | d/B/A/F/ A/B/d/e/ |1 fd df/g/ :|2 fd d ||
